src/assets/selectIcons/scudo_7.svg

<svg xmlns="http://www.w3.org/2000/svg" viewBox="0 0 512 512" style="height: 512px; width: 512px;"><path d="M0 0h512v512H0z" fill="#000" fill-opacity="1"></path><g class="" transform="translate(0,0)" style=""><path d="M129.656 21.188L37.936 79.78c3.54 26.805 8.915 53.547 16.127 80.126L240.72 39.594l-19.282-12.5c-31.28-.885-62.204-2.842-91.782-5.907zm253.47.625c-40.51 3.975-83.496 5.938-126.47 5.843l204.625 132.72c7.108-25.89 12.487-51.92 16.095-78.032l-94.25-60.53zM257.937 50.75L59.468 178.656c8.025 26.32 17.865 52.456 29.532 78.313l243.25-158-74.313-48.22zm91.468 59.344l-74.562 48.437 151.28 98.782c11.714-25.803 21.592-51.91 29.688-78.187l-106.406-69.03zm-91.687 59.562L97 274.062c12.202 25.17 26.14 50.064 41.844 74.563l196.094-128.53-77.22-50.44zM352 231.22l-77.53 50.843 101.405 67.187c15.822-24.6 29.895-49.584 42.22-74.875L352 231.22zm-94.53 61.968l-108.345 71.03c13.564 20.062 28.326 39.847 44.28 59.313l132.032-85.28-67.968-45.063zm84.967 56.312L274.5 393.406l47.03 30.375c15.845-19.342 30.513-38.993 44.033-58.936L342.438 349.5zm-84.968 54.875L205.5 437.97c16.233 18.933 33.614 37.54 52.156 55.78 18.385-18.152 35.637-36.678 51.78-55.53l-52.092-33.626.125-.22z" fill="#fff" fill-opacity="1"></path></g></svg>

<?xml version="1.0" encoding="UTF-8" standalone="no"?>
<!DOCTYPE svg PUBLIC "-//W3C//DTD SVG 1.1//EN" "http://www.w3.org/Graphics/SVG/1.1/DTD/svg11.dtd">
<svg width="100%" height="100%" viewBox="0 0 512 512" version="1.1" xmlns="http://www.w3.org/2000/svg" xmlns:xlink="http://www.w3.org/1999/xlink" xml:space="preserve" xmlns:serif="http://www.serif.com/" style="fill-rule:evenodd;clip-rule:evenodd;stroke-linejoin:round;stroke-miterlimit:2;">
    <rect x="0" y="0" width="512" height="512" style="fill-rule:nonzero;"/>
    <g>
        <path d="M129.656,21.188L37.936,79.78C41.476,106.585 46.851,133.327 54.063,159.906L240.72,39.594L221.438,27.094C190.158,26.209 159.234,24.252 129.656,21.187L129.656,21.188ZM383.126,21.813C342.616,25.788 299.63,27.751 256.656,27.656L461.281,160.376C468.389,134.486 473.768,108.456 477.376,82.344L383.126,21.814L383.126,21.813ZM257.937,50.75L59.468,178.656C67.493,204.976 77.333,231.112 89,256.969L332.25,98.969L257.937,50.749L257.937,50.75ZM349.405,110.094L274.843,158.531L426.123,257.313C437.837,231.51 447.715,205.403 455.811,179.126L349.405,110.096L349.405,110.094ZM257.718,169.656L97,274.062C109.202,299.232 123.14,324.126 138.844,348.625L334.938,220.095L257.718,169.655L257.718,169.656ZM352,231.22L274.47,282.063L375.875,349.25C391.697,324.65 405.77,299.666 418.095,274.375L352,231.22ZM257.47,293.188L149.125,364.218C162.689,384.28 177.451,404.065 193.405,423.531L325.437,338.251L257.469,293.188L257.47,293.188ZM342.437,349.5L274.5,393.406L321.53,423.781C337.375,404.439 352.043,384.788 365.563,364.845L342.438,349.5L342.437,349.5ZM257.469,404.375L205.5,437.97C221.733,456.903 239.114,475.51 257.656,493.75C276.041,475.598 293.293,457.072 309.436,438.22L257.344,404.594L257.469,404.374L257.469,404.375Z" style="fill:rgb(157,130,99);fill-rule:nonzero;"/>
    </g>
</svg>
